!!!OTL: DAS IST KURZ UND DAS IST LANG
!!!ARE: Europa, Mitteleuropa, Deutschland, Rheinland
!!!SCT: K2610
!!!YEM: Copyright 1995, estate of Helmut Schaffrath.
**kern
*ICvox
*Ivox
*M2/4
*k[b-]
*F:
=1
{8f
8g
8a
8a
=2
8g
8g
8f
8r}
=3
{8a
8b-
8cc
8cc
=4
8b-
8b-
8a
8r}
=5
{8cc
8cc
8dd
8r
=6
8b-
8b-
4cc}
=7
{4.a
8cc
=8
8cc
8b-
4b-}
=9
{4.g
8dd
=10
8dd
8cc
4cc}
=11
{4.a
8cc
=12
8cc
8b-
4b-}
=13
{4g
4g
=14
4f
4r}
==
!!!AGN: Kinder - Lied, Pfaender - Spiel
!!!ONB: ESAC (Essen Associative Code) Database: KINDER
!!!AMT: simple duple
!!!AIN: vox
!!!EED: Helmut Schaffrath
!!!EEV: 1.0
*-
